X: 30024
T: Off She Goes
R: jig
M: 6/8
K: Dmajor
|:F2A G2B|ABc dAG|F2A G2B|AFD E3|
FGA GAB|ABc d2e|fed g2f|edc d3:|
|:ef2 fde|fg2 gef|gf2 dde|fec AA2|
ef2 fde|fg2 gef|gfe dg2|fed cd2:|

